src/assets/images/icons/atome.svg

<svg xmlns="http://www.w3.org/2000/svg" viewBox="0 0 236 236" preserveAspectRatio="xMidYMid meet">
  <circle cx="56.75" cy="54.6" r="31.3" fill="#000"/>
  <path fill="#000" fill-rule="evenodd" d="M195.43 68.76c-19.52.35-30.81 17.21-30.78 31.28.02 14.05 9.28 17.18 10.64 40.61.38 28.55-36.19 48.26-56.9 48.53-81.14 1.05-101.68-65.52-101.86-84.29-.09-9.09-7.84-9.77-7.66.23 1.11 61.64 50.44 108.53 109.77 107.8 64.7-.8 110.5-52.55 108.66-113.84-.5-16.5-14.52-30.63-31.87-30.28Z"/>
</svg>

<svg width="128" height="128" viewBox="0 0 128 128" preserveAspectRatio="xMidYMid meet" xmlns="http://www.w3.org/2000/svg" xmlns:xlink="http://www.w3.org/1999/xlink"><g transform="translate(0, 0) scale(1) translate(0, 0)">
<g transform="translate(0, 0) scale(0.540084) translate(0, 0)">

    <!-- Generated by PaintCode - http://www.paintcodeapp.com -->
    <g>
        <g>
            <circle stroke="none" fill="rgb(201, 12, 125)" cx="56.75" cy="54.6" r="31.3" />
        </g>
        <g>
            <path fill-rule="evenodd" stroke="none" fill="rgb(201, 12, 125)" d="M 195.43,68.76 C 175.91,69.11 164.62,85.97 164.65,100.04 164.67,114.09 173.93,117.22 175.29,140.65 175.67,169.2 139.1,188.91 118.39,189.18 37.25,190.23 16.71,123.66 16.53,104.89 16.44,95.8 8.69,95.12 8.87,105.12 9.98,166.76 59.31,213.65 118.64,212.92 183.34,212.12 229.14,160.37 227.3,99.08 226.8,82.58 212.78,68.45 195.43,68.76 Z M 195.43,68.76" />
        </g>
    </g>

</g>
</g></svg>
